deployments/warp_routes/SUPR/logo.svg

<svg xmlns="http://www.w3.org/2000/svg" width="304" height="320" fill="none" viewBox="0 0 304 320"><path fill="#91D3D0" d="M0 0h303.529v320H0z"/><path fill="#1F1F1D" d="M174.744 158.83h-1.424l5.163-1.147c-.581.283-3.449 1.147-3.739 1.147m5.75-1.147h-1.445l1.445-.864c-1.445 0-2.592 0-3.739-.574-6.317 1.147-12.911 1.438-18.937 2.585-.291 0-.857.573-.857.573 0 .284 0 .284.276.567 2.882 0 5.75.574 8.909.574 2.571 0 5.439-.857 8.031-1.141-2.302 1.721-10.333 1.438-13.491 1.438-1.147 0-2.004.283-2.868.574.566 1.714 2.578 2.287 3.158 4.015 6.303 6.31 12.054 15.205 16.636 22.662 0 .864.29 2.301.871 2.875v1.14c0 .574.857 1.444 1.423 1.728h.298c0 .283-.298.573-.298.857 0 1.147 2.592 2.011 2.592 2.875 0 .283 0 .574-.29.574-2.592-.291-3.159-1.728-4.306-3.733-2.578-1.727-3.158-5.452-6.317-6.89-.567-2.294-2.004-2.011-2.868-4.299l-2.571-5.743c1.133.29 2.004 1.154 2.004 2.302 1.721 4.015 4.582 6.6 6.594 10.325.857.29.857 1.437 2.011 1.721-1.721-4.873-4.589-11.189-9.185-14.348 0-.857-.291-2.004-1.424-2.004-.588 0-.588 1.147-.29 1.43-1.155-1.713-1.721-3.441-3.449-4.589l.29-.573c0-1.438-.864-2.585-2.011-2.868-.567-2.011-2.868 0-4.016-2.302-.857-2.004-3.448-2.578-5.162-2.578-5.17 7.748-24.1 25.827-26.692 33.575-1.714.283-2.868 1.43-4.582 1.43-.29 0-1.444 0-1.444-.573 0-.574 1.154-1.147 1.444-2.011 2.868-4.589 28.406-31.273 28.406-34.715 0-.857-2.012-1.438-2.869-1.438-.87-.29-2.011-.573-2.882-.573-2.578 0-4.872.573-7.45.573-6.027 0-12.337 1.155-18.654 1.155-1.147 0-.566-1.155-1.444-2.012 2.011-.29 3.746-1.72 5.75-1.72.567 0 1.721.283 2.578.857 1.728 0 3.449.29 5.163.29 6.317 0 15.205-.29 21.231-1.721.291-.29.581-.29.581-.581 0-.283-1.438-.573-1.147-1.43 0-1.148-6.608-6.891-6.608-8.605.291 0 .291-.297.291-.297 0-3.144-10.043-14.914-12.627-17.789v-.284c0-1.72-1.431-2.577-1.431-4.015 0-.574.857-1.147 1.431-1.147.87 0 1.437 1.147 2.004 1.721-.277.29-.567.58-.567.864 0 1.43 6.317 9.461 6.884 9.461.29 0 .29-.857.58-.857 6.594 4.015 8.329 11.479 12.62 17.216 4.306 0 13.782-23.243 19.235-25.247h.566c-4.872 7.174-10.332 14.058-14.348 21.805l.567.574c2.592-1.148 2.025-4.016 3.159-4.873.58-.871 3.448-2.585 3.448-3.448 0-.574 7.174-9.469 8.619-12.627 1.424-1.431 2.281-3.159 3.725-4.873l-2.011.567c.567-2.294 5.46-5.156 7.741-4.872-2.571 4.589-7.451 7.174-9.455 12.046-2.592 5.46-5.46 8.604-9.185 13.207v.284c0 .857-1.728 1.72-1.728 2.584-1.721 2.862-7.174 6.02-7.174 10.035.857.291 2.004.291 2.861.291 7.464 0 15.226-1.721 22.676-1.721 2.585 0 6.31-.284 8.612.857-2.868 1.154-6.027 1.437-8.888 1.728"/><path fill="#1F1F1D" d="M197.274 203.379c.684-2.177 1.278-4.492 1.859-6.87.573-.767 1.182-1.499 1.734-2.28 0 3.552-1.872 6.31-3.593 9.15m-17.638 27.866c-.29 1.431-1.431 1.714-2.578 2.004 1.099-3.096 2.53-6.006 3.933-8.894 2.771-1.058 5.259-3.449 7.927-4.866-2.855 4.092-5.916 8.052-9.282 11.756m15.405-29.442c-1.748 3.698-3.884 7.769-6.517 12.793-2.212.933-3.29 3.207-4.817 4.845.29-.857.573-1.742 1.092-2.26 2.467-5.702 6.337-10.519 10.242-15.378m-32.054 41.778c-2.005 3.726-10.043 8.321-13.768 8.321-4.015 0-7.464-3.725-11.479-4.022-.857-2.861-4.016-1.43-6.027-2.861-4.873-3.449-11.48-10.332-14.348-15.502-4.873-9.178-9.178-21.231-11.756-30.983-1.147-4.015-1.147-27.264-1.147-32.136 0-17.216-.581-30.707 6.593-46.485 0-3.442 3.449-5.453 3.449-8.031v-1.154c2.004-2.288 2.004-6.02 4.596-8.031 2.578-8.32 10.318-13.49 14.334-21.238 3.158-1.43 4.029-5.736 6.897-7.74 6.303-4.023 12.904-9.759 20.942-9.759.857.574 1.714 1.14 2.861 1.14.587 0 .864-.283 1.444-.283l1.148-.857c1.154.283 2.577 1.438 3.158-.574 5.17 1.148 12.344-1.43 15.495 4.3 11.197 7.173 7.748 22.385 12.33 32.71.871 9.185 1.728 18.363 2.004 27.838.291 12.91 2.011 25.82 2.011 39.02 0 10.644-.732 17.465-2.508 23.727-1.148 2.204-2.343 4.347-3.518 6.696-3.145 1.714-3.725 6.303-7.174 7.458-2.191 4.167-4.852 10.055-7.907 16.013-.048.007-.076.048-.124.048-.366-.297-.442-.726-.664-1.085-.774.933-1.534 1.873-2.425 2.709.442.622.863 1.265 1.382 1.756-4.555 8.424-9.863 16.352-15.799 19.005m-20.942 12.911c-8.888 0-18.93-3.159-24.093-10.616-4.022-5.163-9.475-10.042-12.067-16.359-2.578-2.861-11.19-37.299-11.19-42.462 0-.29 0-1.438.872-1.438 3.435 0 9.752 18.363 10.318 20.948 2.592 8.605 7.464 17.79 11.48 25.82 2.301 4.023 5.46 6.891 7.761 10.906 2.862.857 4.292 4.016 7.451 4.589 1.437 2.585 4.306 2.868 6.02 4.886 1.154 0 4.312.857 4.312 2.295 0 .574 0 1.431-.864 1.431m68.291-87.226c-1.438 1.147-4.016 2.868-3.725 5.162v.857c-2.295 3.449-2.585 7.464-4.887 10.906-.228.366-.38.76-.594 1.127 3.546-19.359 4.624-41.571 4.624-54.212 0-11.762-4.03-23.235-5.163-34.998-.587-9.185-.878-19.234-6.897-26.69-6.027-6.884-14.348-12.047-23.81-12.047-1.438 0-2.868 0-4.306.283-1.147-.857-2.591-1.147-4.015-1.147-4.306 0-7.755 3.159-11.777 3.159-1.134 0-2.281-.29-3.152-.58l-1.43 1.444 5.169.283c.291.573.857 1.147.857 1.72 0 1.722-4.872 1.148-5.46 4.016-9.178 4.88-18.93 16.642-24.383 25.247-3.158 5.17-6.026 11.486-8.895 16.932-.29.283-2.301 4.596-2.868 4.596 0 2.004-.58 3.732-.857 5.446-2.301 2.301-.871 6.6-3.158 8.902-3.449 10.898-6.317 24.382-6.317 35.571 0 .864-.58 1.155-1.438 1.438-.276-2.585-1.147-5.453-.857-8.314v-1.728c1.148-25.82 1.714-47.632 16.933-70.017 11.473-16.926 26.111-19.51 30.417-24.666-.857 0-1.438-.29-2.302-.29-2.294 0-4.582 1.147-5.729 3.151-16.359 5.453-24.39 20.374-31.288 34.722-1.147 1.728-2.578 2.868-2.868 5.169-1.147 5.163-2.004 10.035-4.015 15.205-.567 2.004-1.714 5.163-1.714 7.174 0 1.721.857 3.442.857 5.162 0 2.295-.29 4.299-.857 6.601-3.159 15.778-4.023 32.994-4.023 49.069 0 12.903 5.737 24.389 9.752 36.152 4.306 12.62 13.491 22.952 23.243 31.564l7.174 1.147c1.728 1.43 3.739 2.011 6.02 2.011 3.158 0 6.316-1.154 9.475-.871h1.147c4.016-2.571 10.899-4.299 14.058-7.74.857-.574 1.444-2.585 2.592-2.585.276 0 .566 0 .857.283 6.026-6.593 13.49-12.046 18.93-18.936 2.868-3.442 4.603-7.748 7.174-11.473.864-1.147.864-2.875 2.301-3.732 3.449-8.604 17.216-36.152 17.216-43.609v-.864z"/><path fill="#1F1F1D" d="M150.65 253.921c-.29 0-.58.29-.58.573h.58c0-.283 0-.283.277-.283 0-.29 0-.29-.277-.29"/></svg>

<svg width="304" height="320" viewBox="0 0 304 320" fill="none" xmlns="http://www.w3.org/2000/svg">
<rect width="303.529" height="320" fill="#91D3D0"/>
<path d="M174.744 158.83H173.32L178.483 157.683C177.902 157.966 175.034 158.83 174.744 158.83ZM180.494 157.683H179.049L180.494 156.819C179.049 156.819 177.902 156.819 176.755 156.245C170.438 157.392 163.844 157.683 157.818 158.83C157.527 158.83 156.961 159.403 156.961 159.403C156.961 159.687 156.961 159.687 157.237 159.97C160.119 159.97 162.987 160.544 166.146 160.544C168.717 160.544 171.585 159.687 174.177 159.403C171.875 161.124 163.844 160.841 160.686 160.841C159.539 160.841 158.682 161.124 157.818 161.415C158.384 163.129 160.396 163.702 160.976 165.43C167.279 171.74 173.03 180.635 177.612 188.092C177.612 188.956 177.902 190.393 178.483 190.967V192.107C178.483 192.681 179.34 193.551 179.906 193.835H180.204C180.204 194.118 179.906 194.408 179.906 194.692C179.906 195.839 182.498 196.703 182.498 197.567C182.498 197.85 182.498 198.141 182.208 198.141C179.616 197.85 179.049 196.413 177.902 194.408C175.324 192.681 174.744 188.956 171.585 187.518C171.018 185.224 169.581 185.507 168.717 183.219L166.146 177.476C167.279 177.766 168.15 178.63 168.15 179.778C169.871 183.793 172.732 186.378 174.744 190.103C175.601 190.393 175.601 191.54 176.755 191.824C175.034 186.951 172.166 180.635 167.57 177.476C167.57 176.619 167.279 175.472 166.146 175.472C165.558 175.472 165.558 176.619 165.856 176.902C164.701 175.189 164.135 173.461 162.407 172.313L162.697 171.74C162.697 170.302 161.833 169.155 160.686 168.872C160.119 166.861 157.818 168.872 156.67 166.57C155.813 164.566 153.222 163.992 151.508 163.992C146.338 171.74 127.408 189.819 124.816 197.567C123.102 197.85 121.948 198.997 120.234 198.997C119.944 198.997 118.79 198.997 118.79 198.424C118.79 197.85 119.944 197.277 120.234 196.413C123.102 191.824 148.64 165.14 148.64 161.698C148.64 160.841 146.628 160.26 145.771 160.26C144.901 159.97 143.76 159.687 142.889 159.687C140.311 159.687 138.017 160.26 135.439 160.26C129.412 160.26 123.102 161.415 116.785 161.415C115.638 161.415 116.219 160.26 115.341 159.403C117.352 159.113 119.087 157.683 121.091 157.683C121.658 157.683 122.812 157.966 123.669 158.54C125.397 158.54 127.118 158.83 128.832 158.83C135.149 158.83 144.037 158.54 150.063 157.109C150.354 156.819 150.644 156.819 150.644 156.528C150.644 156.245 149.206 155.955 149.497 155.098C149.497 153.95 142.889 148.207 142.889 146.493C143.18 146.493 143.18 146.196 143.18 146.196C143.18 143.052 133.137 131.282 130.553 128.407V128.123C130.553 126.403 129.122 125.546 129.122 124.108C129.122 123.534 129.979 122.961 130.553 122.961C131.423 122.961 131.99 124.108 132.557 124.682C132.28 124.972 131.99 125.262 131.99 125.546C131.99 126.976 138.307 135.007 138.874 135.007C139.164 135.007 139.164 134.15 139.454 134.15C146.048 138.165 147.783 145.629 152.074 151.366C156.38 151.366 165.856 128.123 171.309 126.119H171.875C167.003 133.293 161.543 140.177 157.527 147.924L158.094 148.498C160.686 147.35 160.119 144.482 161.253 143.625C161.833 142.754 164.701 141.04 164.701 140.177C164.701 139.603 171.875 130.708 173.32 127.55C174.744 126.119 175.601 124.391 177.045 122.677L175.034 123.244C175.601 120.95 180.494 118.088 182.775 118.372C180.204 122.961 175.324 125.546 173.32 130.418C170.728 135.878 167.86 139.022 164.135 143.625V143.909C164.135 144.766 162.407 145.629 162.407 146.493C160.686 149.355 155.233 152.513 155.233 156.528C156.09 156.819 157.237 156.819 158.094 156.819C165.558 156.819 173.32 155.098 180.77 155.098C183.355 155.098 187.08 154.814 189.382 155.955C186.514 157.109 183.355 157.392 180.494 157.683Z" fill="#1F1F1D"/>
<path d="M197.274 203.379C197.958 201.202 198.552 198.887 199.133 196.509C199.706 195.742 200.315 195.01 200.867 194.229C200.867 197.781 198.995 200.539 197.274 203.379ZM179.636 231.245C179.346 232.676 178.205 232.959 177.058 233.249C178.157 230.153 179.588 227.243 180.991 224.355C183.762 223.297 186.25 220.906 188.918 219.489C186.063 223.581 183.002 227.541 179.636 231.245ZM195.041 201.803C193.293 205.501 191.157 209.572 188.524 214.596C186.312 215.529 185.234 217.803 183.707 219.441C183.997 218.584 184.28 217.699 184.799 217.181C187.266 211.479 191.136 206.662 195.041 201.803ZM162.987 243.581C160.982 247.307 152.944 251.902 149.219 251.902C145.204 251.902 141.755 248.177 137.74 247.88C136.883 245.019 133.724 246.45 131.713 245.019C126.84 241.57 120.233 234.687 117.365 229.517C112.492 220.339 108.187 208.286 105.609 198.534C104.462 194.519 104.462 171.27 104.462 166.398C104.462 149.182 103.881 135.691 111.055 119.913C111.055 116.471 114.504 114.46 114.504 111.882V110.728C116.508 108.44 116.508 104.708 119.1 102.697C121.678 94.3762 129.418 89.2067 133.434 81.4593C136.592 80.0286 137.463 75.723 140.331 73.7187C146.634 69.6964 153.235 63.9602 161.273 63.9602C162.13 64.5338 162.987 65.1005 164.134 65.1005C164.721 65.1005 164.998 64.8172 165.578 64.8172L166.726 63.9602C167.88 64.2435 169.303 65.3977 169.884 63.3865C175.054 64.5338 182.228 61.9559 185.379 67.6853C196.576 74.8591 193.127 90.0706 197.709 100.396C198.58 109.581 199.437 118.759 199.713 128.234C200.004 141.144 201.724 154.054 201.724 167.254C201.724 177.898 200.992 184.719 199.216 190.981C198.068 193.185 196.873 195.328 195.698 197.677C192.553 199.391 191.973 203.98 188.524 205.135C186.333 209.302 183.672 215.19 180.617 221.148C180.569 221.155 180.541 221.196 180.493 221.196C180.127 220.899 180.051 220.47 179.829 220.111C179.055 221.044 178.295 221.984 177.404 222.82C177.846 223.442 178.267 224.085 178.786 224.576C174.231 233 168.923 240.928 162.987 243.581ZM142.045 256.492C133.157 256.492 123.115 253.333 117.952 245.876C113.93 240.713 108.477 235.834 105.885 229.517C103.307 226.656 94.6959 192.218 94.6959 187.055C94.6959 186.765 94.6959 185.617 95.5667 185.617C99.0016 185.617 105.319 203.98 105.885 206.565C108.477 215.17 113.349 224.355 117.365 232.385C119.666 236.408 122.825 239.276 125.126 243.291C127.988 244.148 129.418 247.307 132.577 247.88C134.014 250.465 136.883 250.748 138.597 252.766C139.751 252.766 142.909 253.623 142.909 255.061C142.909 255.635 142.909 256.492 142.045 256.492ZM210.336 169.266C208.898 170.413 206.32 172.134 206.611 174.428V175.285C204.316 178.734 204.026 182.749 201.724 186.191C201.496 186.557 201.344 186.951 201.13 187.318C204.676 167.959 205.754 145.747 205.754 133.106C205.754 121.344 201.724 109.871 200.591 98.1083C200.004 88.9233 199.713 78.8745 193.694 71.4173C187.667 64.5338 179.346 59.3712 169.884 59.3712C168.446 59.3712 167.016 59.3712 165.578 59.6545C164.431 58.7975 162.987 58.5073 161.563 58.5073C157.257 58.5073 153.808 61.6657 149.786 61.6657C148.652 61.6657 147.505 61.3754 146.634 61.0851L145.204 62.5296L150.373 62.8129C150.664 63.3865 151.23 63.9602 151.23 64.5338C151.23 66.2547 146.358 65.6811 145.77 68.5492C136.592 73.4285 126.84 85.1913 121.387 93.7957C118.229 98.9652 115.361 105.282 112.492 110.728C112.202 111.011 110.191 115.324 109.624 115.324C109.624 117.328 109.044 119.056 108.767 120.77C106.466 123.071 107.896 127.37 105.609 129.672C102.16 140.57 99.2919 154.054 99.2919 165.243C99.2919 166.107 98.7113 166.398 97.8543 166.681C97.5779 164.096 96.707 161.228 96.9973 158.367V156.639C98.1446 130.819 98.7113 109.007 113.93 86.6219C125.403 69.6964 140.041 67.1117 144.347 61.9559C143.49 61.9559 142.909 61.6657 142.045 61.6657C139.751 61.6657 137.463 62.8129 136.316 64.8172C119.957 70.2701 111.926 85.1913 105.028 99.5389C103.881 101.267 102.45 102.407 102.16 104.708C101.013 109.871 100.156 114.743 98.1446 119.913C97.5779 121.917 96.4306 125.076 96.4306 127.087C96.4306 128.808 97.2876 130.529 97.2876 132.249C97.2876 134.544 96.9973 136.548 96.4306 138.85C93.2721 154.628 92.4082 171.844 92.4082 187.919C92.4082 200.822 98.1446 212.308 102.16 224.071C106.466 236.691 115.651 247.023 125.403 255.635L132.577 256.782C134.305 258.212 136.316 258.793 138.597 258.793C141.755 258.793 144.913 257.639 148.072 257.922H149.219C153.235 255.351 160.118 253.623 163.277 250.182C164.134 249.608 164.721 247.597 165.869 247.597C166.145 247.597 166.435 247.597 166.726 247.88C172.752 241.287 180.216 235.834 185.656 228.944C188.524 225.502 190.259 221.196 192.83 217.471C193.694 216.324 193.694 214.596 195.131 213.739C198.58 205.135 212.347 177.587 212.347 170.13V169.266H210.336Z" fill="#1F1F1D"/>
<path d="M150.65 253.921C150.36 253.921 150.07 254.211 150.07 254.494H150.65C150.65 254.211 150.65 254.211 150.927 254.211C150.927 253.921 150.927 253.921 150.65 253.921Z" fill="#1F1F1D"/>
</svg>
